icons/puppeteer-dark.svg

<svg width="256" height="256" viewBox="0 0 256 256" fill="none" xmlns="http://www.w3.org/2000/svg">
<rect width="256" height="256" rx="50" fill="#282828"/>
<path d="M199.928 141.342H55.2959V133.185C55.2959 127.705 59.7385 123.262 65.2186 123.262H190.004C195.485 123.262 199.928 127.705 199.928 133.185V141.342Z" fill="#DFDEDF"/>
<path d="M189.852 235.933H65.3717C59.807 235.933 55.2959 231.422 55.2959 225.857V141.343H199.928V225.857C199.928 231.422 195.417 235.933 189.852 235.933Z" fill="white"/>
<path d="M198.097 139.701V132.387C198.097 128.068 194.597 124.568 190.279 124.568H65.0988C60.7805 124.568 57.2803 128.068 57.2803 132.387V139.701H198.097ZM198.097 226.901V142.982H57.2803V226.901C57.2803 231.22 60.7805 234.72 65.0988 234.72H190.279C194.597 234.72 198.097 231.22 198.097 226.901ZM65.8328 121.288L66.3199 115.971L64.252 121.33C64.5323 121.309 64.8127 121.288 65.0988 121.288H65.8328ZM188.687 112.324L189.408 121.288H190.279C190.745 121.288 191.201 121.326 191.651 121.382L188.687 112.324ZM198.616 125.084C200.329 127.038 201.378 129.589 201.378 132.387V226.901C201.378 233.021 196.399 238 190.279 238H65.0988C58.9792 238 54 233.021 54 226.901V132.387C54 129.421 55.1761 126.729 57.0782 124.736L68.1431 96.0563L72.968 43.3491L78.4117 43.8471L74.0641 91.3373L75.5954 91.928L73.5172 97.3153L71.3226 121.288H183.924L177.676 43.7159L183.124 43.2766L186.81 89.0265L186.812 89.0259L198.616 125.084ZM66.1797 129.914C67.5475 129.914 68.6563 131.023 68.6563 132.391C68.6563 133.758 67.5475 134.867 66.1797 134.867C64.8118 134.867 63.703 133.758 63.703 132.391C63.703 131.023 64.8118 129.914 66.1797 129.914ZM74.647 129.914C76.0148 129.914 77.1236 131.023 77.1236 132.391C77.1236 133.758 76.0148 134.867 74.647 134.867C73.2791 134.867 72.1703 133.758 72.1703 132.391C72.1703 131.023 73.2791 129.914 74.647 129.914ZM82.8475 129.914C84.2154 129.914 85.3242 131.023 85.3242 132.391C85.3242 133.758 84.2154 134.867 82.8475 134.867C81.4797 134.867 80.3709 133.758 80.3709 132.391C80.3709 131.023 81.4797 129.914 82.8475 129.914Z" fill="black"/>
<path d="M74.6709 183.654C75.0963 183.162 75.3203 182.515 75.3203 181.712C75.3203 180.908 75.0963 180.287 74.6709 179.795C74.223 179.303 73.5955 179.069 72.7895 179.069H68.8478V184.379H72.7895C73.5955 184.379 74.223 184.146 74.6709 183.654ZM72.7895 175.884C74.4913 175.884 75.8355 176.402 76.843 177.464C77.851 178.525 78.3438 179.95 78.3438 181.712C78.3438 183.498 77.851 184.897 76.866 185.959C75.858 187.022 74.5143 187.565 72.7895 187.565H68.8478V194.712H65.8018V175.884H72.7895ZM89.2224 187.431V181.938H92.5027V194.339H89.2224V193.221C88.2282 194.215 86.9363 194.711 85.3209 194.711C83.8298 194.711 82.637 194.215 81.7176 193.246C80.7982 192.277 80.3509 191.034 80.3509 189.493V181.938H83.6312V188.797C83.6312 189.667 83.8546 190.388 84.3267 190.91C84.774 191.432 85.3704 191.705 86.1407 191.705C88.2034 191.705 89.2224 190.288 89.2224 187.431ZM105.299 190.835C105.945 190.164 106.268 189.269 106.268 188.151C106.268 187.033 105.945 186.113 105.299 185.443C104.628 184.771 103.808 184.424 102.789 184.424C101.87 184.424 101.05 184.771 100.329 185.467C99.6086 186.164 99.2609 187.058 99.2609 188.151C99.2609 189.245 99.6086 190.14 100.329 190.81C101.05 191.507 101.87 191.854 102.789 191.854C103.808 191.854 104.628 191.507 105.299 190.835ZM103.361 181.566C104.976 181.566 106.417 182.188 107.635 183.43C108.853 184.697 109.449 186.263 109.449 188.151C109.449 190.04 108.853 191.606 107.635 192.848C106.417 194.091 105.001 194.711 103.361 194.711C101.746 194.711 100.379 194.264 99.2609 193.37V200.255H95.9806V181.939H99.2609V182.933C100.354 182.013 101.721 181.566 103.361 181.566ZM121.252 190.835C121.898 190.164 122.221 189.269 122.221 188.151C122.221 187.033 121.898 186.113 121.252 185.443C120.581 184.771 119.761 184.424 118.742 184.424C117.823 184.424 117.003 184.771 116.282 185.467C115.561 186.164 115.213 187.058 115.213 188.151C115.213 189.245 115.561 190.14 116.282 190.81C117.003 191.507 117.823 191.854 118.742 191.854C119.761 191.854 120.581 191.507 121.252 190.835ZM119.313 181.566C120.929 181.566 122.37 182.188 123.588 183.43C124.805 184.697 125.402 186.263 125.402 188.151C125.402 190.04 124.805 191.606 123.588 192.848C122.37 194.091 120.954 194.711 119.313 194.711C117.698 194.711 116.332 194.264 115.213 193.37V200.255H111.933V181.939H115.213V182.933C116.307 182.013 117.674 181.566 119.313 181.566ZM130.246 186.71H136.235C136.037 185.94 135.664 185.368 135.142 184.995C134.62 184.622 133.999 184.424 133.303 184.424C132.633 184.424 131.986 184.622 131.415 185.02C130.818 185.418 130.42 185.989 130.246 186.71ZM133.303 181.566C134.993 181.566 136.459 182.162 137.677 183.331C138.895 184.523 139.516 186.039 139.591 187.903V189.021H130.147C130.321 189.891 130.694 190.586 131.266 191.109C131.837 191.63 132.483 191.903 133.253 191.903C134.67 191.903 135.689 191.357 136.335 190.264L139.268 190.885C138.745 192.152 137.95 193.097 136.907 193.743C135.863 194.389 134.645 194.711 133.253 194.711C131.464 194.711 129.948 194.091 128.731 192.873C127.513 191.656 126.891 190.065 126.891 188.151C126.891 186.238 127.513 184.648 128.755 183.405C129.973 182.188 131.489 181.566 133.303 181.566ZM148.635 191.656C149.256 191.656 149.952 191.456 150.698 191.059L151.642 193.793C150.498 194.414 149.43 194.712 148.411 194.712C146.895 194.712 145.702 194.289 144.832 193.469C143.963 192.65 143.541 191.432 143.541 189.767V184.622H140.881V181.938H143.541V178.187H146.821V181.938H150.872V184.622H146.821V189.518C146.821 190.935 147.417 191.656 148.635 191.656ZM155.517 186.71H161.506C161.307 185.94 160.934 185.368 160.413 184.995C159.891 184.622 159.27 184.424 158.573 184.424C157.903 184.424 157.257 184.622 156.685 185.02C156.089 185.418 155.691 185.989 155.517 186.71ZM158.573 181.566C160.264 181.566 161.73 182.162 162.948 183.331C164.165 184.523 164.786 186.039 164.861 187.903V189.021H155.418C155.592 189.891 155.964 190.586 156.537 191.109C157.108 191.63 157.754 191.903 158.524 191.903C159.941 191.903 160.96 191.357 161.606 190.264L164.538 190.885C164.016 192.152 163.221 193.097 162.177 193.743C161.134 194.389 159.916 194.711 158.524 194.711C156.735 194.711 155.219 194.091 154.001 192.873C152.784 191.656 152.162 190.065 152.162 188.151C152.162 186.238 152.784 184.648 154.026 183.405C155.244 182.188 156.76 181.566 158.573 181.566ZM170.252 186.71H176.241C176.042 185.94 175.669 185.368 175.148 184.995C174.626 184.622 174.005 184.424 173.308 184.424C172.638 184.424 171.992 184.622 171.42 185.02C170.824 185.418 170.426 185.989 170.252 186.71ZM173.308 181.566C174.999 181.566 176.465 182.162 177.683 183.331C178.9 184.523 179.521 186.039 179.596 187.903V189.021H170.153C170.327 189.891 170.699 190.586 171.272 191.109C171.843 191.63 172.489 191.903 173.259 191.903C174.676 191.903 175.695 191.357 176.341 190.264L179.273 190.885C178.751 192.152 177.956 193.097 176.912 193.743C175.869 194.389 174.651 194.711 173.259 194.711C171.47 194.711 169.954 194.091 168.736 192.873C167.519 191.656 166.897 190.065 166.897 188.151C166.897 186.238 167.519 184.648 168.761 183.405C169.979 182.188 171.495 181.566 173.308 181.566ZM189.809 181.765C190.182 181.765 190.48 181.789 190.679 181.864L190.505 185.02H189.784C186.827 185.02 185.36 186.785 185.36 190.339V194.339H182.08V181.939H185.36V184.2C186.479 182.584 187.97 181.765 189.809 181.765Z" fill="black"/>
<path d="M175.533 94.3601L193.231 85.8162V77.2729L152.343 57.7442L193.231 36.6905V28.4523L176.144 20.5187L127.73 44.6236L78.5025 20.5187L62.6357 29.0626V36.3854L101.082 57.4391L62.6357 76.9678V85.8162L79.1127 94.3601L127.933 69.3393L175.533 94.3601Z" fill="#00D8A2"/>
<path d="M177.772 90.874V87.1942L191.094 80.291V84.4245L177.772 90.874ZM63.7276 80.1943L76.6001 87.5839V90.5257L63.7276 84.0134V80.1943ZM129.664 64.654L173.945 86.5333V90.9327L129.664 68.2475V64.654ZM80.4268 87.1734L125.837 64.6586V68.2463L80.4268 91.2211V87.1734ZM112.58 50.3837L66.6274 28.1976L78.5293 22.1488L127.75 47.6653L176.147 22.1597L188.469 28.471L143.656 51.0233C141.865 51.9248 141.868 54.4838 143.661 55.3813L188.011 77.5783L176.516 83.535L127.75 58.5482L78.1217 84.0451L66.7868 77.538L112.606 54.7624C114.421 53.8603 114.406 51.2651 112.58 50.3837ZM64.2998 35.7144V31.6765L107.158 53.0589L102.825 54.79L64.2998 35.7144ZM152.182 55.0278C152.123 54.9921 148.077 53.0831 148.077 53.0831L191.094 31.4341V35.4899L152.182 55.0278ZM156.487 57.1481L194.296 38.164C194.679 37.9717 194.921 37.5797 194.921 37.1513V28.1688C194.921 27.7433 194.682 27.3542 194.304 27.1602L176.669 18.1275C176.346 17.9623 175.963 17.9617 175.64 18.1258L128.258 42.1691C127.939 42.3314 127.561 42.3332 127.24 42.1726L79.0238 18.1189C78.7031 17.9588 78.3249 17.9606 78.0048 18.1229L60.5204 27.0082C60.1399 27.2016 59.9004 27.5919 59.9004 28.0185V37.1462C59.9004 37.5774 60.1451 37.9711 60.5319 38.1623L98.4995 56.9207L60.7075 75.6854C60.3293 75.8737 60.0863 76.2565 60.0789 76.6797L59.9136 85.6553C59.9056 86.09 60.1474 86.4907 60.5348 86.687L78.6905 95.8727C79.0111 96.0345 79.3894 96.0351 79.7106 95.8739L127.239 72.0085C127.56 71.8467 127.939 71.8479 128.261 72.0108L175.196 95.8756C175.512 96.0357 175.884 96.0397 176.203 95.8854L194.281 87.1331C194.672 86.9437 194.921 86.5477 194.921 86.1136V76.7355C194.921 76.3032 194.675 75.9088 194.287 75.7183L156.487 57.1481Z" fill="black"/>
</svg>

<svg xmlns="http://www.w3.org/2000/svg" width="256" height="256" fill="none"><rect width="256" height="256" fill="#282828" rx="50"/><path fill="#DFDEDF" d="M199.928 141.342H55.296v-8.157c0-5.48 4.443-9.923 9.923-9.923h124.785c5.481 0 9.924 4.443 9.924 9.923z"/><path fill="#fff" d="M189.852 235.933H65.372c-5.565 0-10.076-4.511-10.076-10.076v-84.514h144.632v84.514c0 5.565-4.511 10.076-10.076 10.076"/><path fill="#000" d="M198.097 139.701v-7.314c0-4.319-3.5-7.819-7.818-7.819H65.099a7.82 7.82 0 0 0-7.819 7.819v7.314zm0 87.2v-83.919H57.28v83.919c0 4.319 3.5 7.819 7.819 7.819h125.18c4.318 0 7.818-3.5 7.818-7.819M65.833 121.288l.487-5.317-2.068 5.359c.28-.021.56-.042.847-.042zm122.854-8.964.721 8.964h.871c.466 0 .922.038 1.372.094zm9.929 12.76a11.04 11.04 0 0 1 2.762 7.303v94.514c0 6.12-4.979 11.099-11.099 11.099H65.099C58.979 238 54 233.021 54 226.901v-94.514a11.05 11.05 0 0 1 3.078-7.651l11.065-28.68 4.825-52.707 5.444.498-4.348 47.49 1.531.591-2.078 5.387-2.194 23.973h112.601l-6.248-77.572 5.448-.44 3.686 45.75h.002zm-132.436 4.83a2.477 2.477 0 1 1 0 4.954 2.477 2.477 0 0 1 0-4.954m8.467 0a2.477 2.477 0 1 1 0 4.954 2.477 2.477 0 0 1 0-4.954m8.2 0a2.477 2.477 0 1 1 0 4.954 2.477 2.477 0 0 1 0-4.954"/><path fill="#000" d="M74.67 183.654c.426-.492.65-1.139.65-1.942 0-.804-.224-1.425-.65-1.917-.447-.492-1.075-.726-1.88-.726h-3.942v5.31h3.942c.805 0 1.433-.233 1.88-.725m-1.88-7.77c1.701 0 3.045.518 4.053 1.58 1.008 1.061 1.5 2.486 1.5 4.248 0 1.786-.492 3.185-1.477 4.247-1.008 1.063-2.352 1.606-4.076 1.606h-3.942v7.147h-3.046v-18.828zm16.432 11.547v-5.493h3.28v12.401h-3.28v-1.118c-.994.994-2.286 1.49-3.901 1.49-1.491 0-2.684-.496-3.603-1.465-.92-.969-1.367-2.212-1.367-3.753v-7.555h3.28v6.859c0 .87.224 1.591.696 2.113.447.522 1.043.795 1.814.795 2.062 0 3.081-1.417 3.081-4.274m16.077 3.404q.969-1.007.969-2.684c0-1.118-.323-2.038-.969-2.708-.671-.672-1.491-1.019-2.51-1.019q-1.379 0-2.46 1.043c-.72.697-1.068 1.591-1.068 2.684s.348 1.989 1.068 2.659q1.081 1.045 2.46 1.044c1.019 0 1.839-.347 2.51-1.019m-1.938-9.269c1.615 0 3.056.622 4.274 1.864 1.218 1.267 1.814 2.833 1.814 4.721 0 1.889-.596 3.455-1.814 4.697-1.218 1.243-2.634 1.863-4.274 1.863q-2.423 0-4.1-1.341v6.885h-3.28v-18.316h3.28v.994c1.093-.92 2.46-1.367 4.1-1.367m17.891 9.269q.969-1.007.969-2.684c0-1.118-.323-2.038-.969-2.708-.671-.672-1.491-1.019-2.51-1.019q-1.378 0-2.46 1.043c-.721.697-1.069 1.591-1.069 2.684s.348 1.989 1.069 2.659q1.082 1.045 2.46 1.044c1.019 0 1.839-.347 2.51-1.019m-1.939-9.269c1.616 0 3.057.622 4.275 1.864 1.217 1.267 1.814 2.833 1.814 4.721 0 1.889-.597 3.455-1.814 4.697-1.218 1.243-2.634 1.863-4.275 1.863q-2.422 0-4.1-1.341v6.885h-3.28v-18.316h3.28v.994c1.094-.92 2.461-1.367 4.1-1.367m10.933 5.144h5.989c-.198-.77-.571-1.342-1.093-1.715a3.1 3.1 0 0 0-1.839-.571c-.67 0-1.317.198-1.888.596a2.75 2.75 0 0 0-1.169 1.69m3.057-5.144c1.69 0 3.156.596 4.374 1.765 1.218 1.192 1.839 2.708 1.914 4.572v1.118h-9.444q.261 1.304 1.119 2.088c.571.521 1.217.794 1.987.794 1.417 0 2.436-.546 3.082-1.639l2.933.621c-.523 1.267-1.318 2.212-2.361 2.858q-1.566.968-3.654.968c-1.789 0-3.305-.62-4.522-1.838s-1.84-2.808-1.84-4.722c0-1.913.622-3.503 1.864-4.746 1.218-1.217 2.734-1.839 4.548-1.839m15.332 10.09c.621 0 1.317-.2 2.063-.597l.944 2.734c-1.144.621-2.212.919-3.231.919-1.516 0-2.709-.423-3.579-1.243-.869-.819-1.291-2.037-1.291-3.702v-5.145h-2.66v-2.684h2.66v-3.751h3.28v3.751h4.051v2.684h-4.051v4.896c0 1.417.596 2.138 1.814 2.138m6.882-4.946h5.989c-.199-.77-.572-1.342-1.093-1.715a3.1 3.1 0 0 0-1.84-.571 3.27 3.27 0 0 0-1.888.596 2.75 2.75 0 0 0-1.168 1.69m3.056-5.144c1.691 0 3.157.596 4.375 1.765 1.217 1.192 1.838 2.708 1.913 4.572v1.118h-9.443q.26 1.304 1.119 2.088c.571.521 1.217.794 1.987.794 1.417 0 2.436-.546 3.082-1.639l2.932.621c-.522 1.267-1.317 2.212-2.361 2.858q-1.565.968-3.653.968c-1.789 0-3.305-.62-4.523-1.838s-1.839-2.808-1.839-4.722c0-1.913.622-3.503 1.864-4.746 1.218-1.217 2.734-1.839 4.547-1.839m11.679 5.144h5.989c-.199-.77-.572-1.342-1.093-1.715a3.1 3.1 0 0 0-1.84-.571 3.27 3.27 0 0 0-1.888.596 2.75 2.75 0 0 0-1.168 1.69m3.056-5.144c1.691 0 3.157.596 4.375 1.765 1.217 1.192 1.838 2.708 1.913 4.572v1.118h-9.443q.26 1.304 1.119 2.088c.571.521 1.217.794 1.987.794 1.417 0 2.436-.546 3.082-1.639l2.932.621c-.522 1.267-1.317 2.212-2.361 2.858q-1.565.968-3.653.968c-1.789 0-3.305-.62-4.523-1.838s-1.839-2.808-1.839-4.722c0-1.913.622-3.503 1.864-4.746 1.218-1.217 2.734-1.839 4.547-1.839m16.501.199c.373 0 .671.024.87.099l-.174 3.156h-.721c-2.957 0-4.424 1.765-4.424 5.319v4h-3.28v-12.4h3.28v2.261c1.119-1.616 2.61-2.435 4.449-2.435"/><path fill="#00D8A2" d="m175.533 94.36 17.698-8.544v-8.543l-40.888-19.529 40.888-21.053v-8.239l-17.087-7.933-48.414 24.105-49.228-24.105-15.866 8.544v7.322l38.446 21.054-38.446 19.529v8.848l16.477 8.544 48.82-25.02z"/><path fill="#000" d="M177.772 90.874v-3.68l13.322-6.903v4.133zM63.728 80.194l12.872 7.39v2.942l-12.872-6.513zm65.936-15.54 44.281 21.88v4.399l-44.281-22.686zm-49.237 22.52 45.41-22.515v3.587l-45.41 22.975zm32.153-36.79L66.627 28.198l11.902-6.05 49.221 25.517 48.397-25.505 12.322 6.311-44.813 22.552c-1.791.902-1.788 3.46.005 4.358l44.35 22.197-11.495 5.957-48.766-24.987-49.628 25.497-11.335-6.507 45.819-22.776c1.815-.902 1.8-3.497-.026-4.378M64.3 35.714v-4.037l42.858 21.382-4.333 1.731zm87.882 19.314c-.059-.036-4.105-1.945-4.105-1.945l43.017-21.649v4.056zm4.305 2.12 37.809-18.984c.383-.192.625-.584.625-1.013V28.17c0-.426-.239-.815-.617-1.009l-17.635-9.032a1.13 1.13 0 0 0-1.029-.002L128.258 42.17a1.13 1.13 0 0 1-1.018.004L79.024 18.119a1.13 1.13 0 0 0-1.02.004L60.52 27.008c-.38.194-.62.584-.62 1.01v9.128c0 .431.245.825.632 1.016L98.5 56.921 60.707 75.685a1.13 1.13 0 0 0-.63.995l-.164 8.975c-.008.435.233.836.62 1.032l18.157 9.186c.32.161.698.162 1.02 0l47.528-23.865c.321-.161.7-.16 1.022.003l46.935 23.865c.316.16.688.164 1.007.01l18.078-8.753c.391-.19.64-.585.64-1.02v-9.377c0-.433-.246-.827-.634-1.018z"/></svg>
